X:50
T:Bransle de Montarde
C:Claude Gervaise
L:1/8
M:4/4
O:France
Z:Andy Hornby
%%TUNEURL: http://www.leeds.ac.uk/music/Info/RRTuneBk/gettune/00000d8d.html
%%ID:00000d8d
K:F
d2e2f2d2|g2e2f2d2|1 d2d2d2d2|c2B2A2G2:|2 c2dc B2AG|G2AF G2z2|
|:g2ag f2e2|f2e2d4|1 G2AG F2E2|F2E2D4:|2 G2AG F2E2|F2E2D4|]
